X: 093
T: Irish Girl
R: jig
M: 6/8
L: 1/8
Z: 2012 John Chambers <jc:trillian.mit.edu>
B: J. Anderson "Budget of Strathspeys, Reels and Country Dances" (Early 1800s) p.9 #3
F: http://imslp.org/wiki/Anderson%27s_Budget_of_Strathspeys,_Reels_and_Country_Dances_(Various)
K: G
E |\
D2E G2A | B2B BAG | B2B BAG | AGA BGE |\
DEG GAB | c2c cde | dBG A2G | E3 G2 :|
|: c |\
(Bc/d/).d dBG | (cd/e/).e efg | (Bc/d/).d dBG | AFD D2c |\
(Bc/d/).d dBG | cde efg | dBG A2G | E3 G2 :|

%%sep 2 1 500
%%sep 1 1 500

